X:1
T:Title
%%score { 1 | ( 2 3 ) }
L:1/8
M:6/8
K:G
V:1 treble nm="Grand Piano"
V:2 treble 
V:3 treble 
V:1
 z3 z2[Q:1/4=90] D | BBB BAB | d3 B2 G | [FA][FA][FA] [FB]2 [DA] | [DG]3- [DG]2 [B,D] | %5
 EEE [EG]FE | D3 B2 B | AAA B2 A | [FA]3- [FA]2 D | BBB BAB | d3 B2 G | [FA][FA][FA] [Fd]2 [Fc] | %12
 B3- B2 d | dcB B2 [FA] | G3 E2 E | DG[GB] [GB]2 [CFA] |[M:5/8] [B,DG]-[B,DG]- [B,DG]3 |] %17
V:2
 z3 z2 [G,B,] | [G,DG][G,DG][G,DG] GF[G,DG] | [G,B,G]3 [G,DG]2[K:bass] [G,B,D] | %3
 [D,C][D,C][D,C] [D,D]2 [D,C] | [G,B,]3- [G,B,]2 [G,,G,] | [C,G,C][C,G,C][C,G,C] z D[C,G,C] | %6
 [G,B,]3[K:treble] [G,DG]2 [G,DG] | [A,^CG][A,CG][A,CG] [A,CG]2 [A,CG] | [D,D]3- [D,D]2 [G,B,] | %9
 [G,DG][G,DG][G,DG] GF[G,DG] | [G,B,G]3 [G,DG]2[K:bass] [E,^CE] | [D,C][D,C][D,C] [D,A,]2 [D,D] | %12
 [G,DG]3- [G,DG]2 [G,B,G] | [G,B,G][G,EG][G,DG] [G,DG]2[K:bass] [D,C] | [E,B,E]3 [C,C]2 [C,G,C] | %15
 [D,G,B,][D,B,D][D,D] [D,D]2 D, |[M:5/8] G,,-G,,- G,,3 |] %17
V:3
 x6 | z3 .[G,D]3 | x5[K:bass] x | x6 | x6 | z3 .[C,G,]3 | x3[K:treble] x3 | x6 | x6 | z3 .[G,D]3 | %10
 x5[K:bass] x | x6 | x6 | x5[K:bass] x | x6 | x6 |[M:5/8] x5 |] %17

